wilib/img/svg/exclamacao.svg

<svg xmlns="http://www.w3.org/2000/svg" xmlns:xlink="http://www.w3.org/1999/xlink" preserveAspectRatio="none" width="59" height="59" viewBox="0 0 59 59"><defs><linearGradient id="a" gradientUnits="userSpaceOnUse" x1="35.65" y1="8.4" x2="35.65" y2="57.5"><stop offset="0%" stop-color="#FBB03B" stop-opacity=".4"/><stop offset="62.745%" stop-color="#FBB03B" stop-opacity=".302"/><stop offset="100%" stop-color="#FFF" stop-opacity=".6"/></linearGradient><linearGradient id="b" gradientUnits="userSpaceOnUse" x1="32.1" y1="31.1" x2="32.1" y2="10.8"><stop offset="0%" stop-color="#FBB03B" stop-opacity=".4"/><stop offset="62.745%" stop-color="#FBB03B" stop-opacity=".302"/><stop offset="100%" stop-color="#FFF" stop-opacity=".6"/></linearGradient><path fill="#E2E2E2" d="M63.4 32.5q0-12.2-8.6-20.8Q46.2 3.1 34 3.1q-12.15 0-20.75 8.6t-8.6 20.8q0 12.15 8.6 20.8 8.6 8.6 20.75 8.6 12.2 0 20.8-8.6 8.6-8.65 8.6-20.8z" id="c"/><path fill="#FFF" d="M61.85 32.05q0-11.6-8.2-19.8-8.2-8.2-19.8-8.2-11.6 0-19.8 8.2-8.2 8.2-8.2 19.8 0 11.6 8.2 19.8 8.2 8.2 19.8 8.2 11.6 0 19.8-8.2 8.2-8.2 8.2-19.8z" id="d"/><path fill="#FBB03B" d="M58.95 32.05q0-10.4-7.3-17.7-7.35-7.3-17.7-7.3-10.4 0-17.7 7.3-7.3 7.3-7.3 17.7 0 10.35 7.3 17.7 7.3 7.3 17.7 7.3 10.35 0 17.7-7.3 7.3-7.35 7.3-17.7z" id="e"/><path fill="#FFF" d="M29.7 41.45Q28 43.15 28 45.6t1.7 4.15q1.75 1.75 4.15 1.75 2.4 0 4.15-1.75 1.75-1.75 1.75-4.15 0-2.4-1.75-4.15-1.75-1.75-4.15-1.75-2.4 0-4.15 1.75m9.9-22.65q0-3-1.4-4.55-1.35-1.6-4.35-1.6-3 0-4.35 1.6-1.35 1.6-1.35 4.55 0 2.75.6 6.95.85 5.05 1.75 9.3.3 1.45 1.05 2.1.75.6 2.3.6 1.65 0 2.3-.6.75-.65 1.05-2.1 1.2-5.15 1.8-9.3.6-4.2.6-6.95z" id="g"/><path fill="url(#a)" d="M56.85 32.05q0-9.55-6.75-16.3-6.7-6.7-16.25-6.7t-16.3 6.7q-6.7 6.75-6.7 16.3t6.7 16.25q6.75 6.75 16.3 6.75T50.1 48.3q6.75-6.7 6.75-16.25z" id="h"/><path fill="url(#b)" d="M50.5 17.05q0-3.35-4.85-5.65-4.9-2.35-11.8-2.35-6.95 0-11.8 2.35-4.9 2.3-4.9 5.65 0 3.3 4.9 5.65 4.9 2.35 11.8 2.35t11.8-2.35q4.85-2.35 4.85-5.65z" id="i"/><path id="f" stroke="#F7931E" stroke-linejoin="round" stroke-linecap="round" fill="none" d="M51.55 14.35q7.3 7.3 7.3 17.7 0 10.35-7.3 17.7-7.35 7.3-17.7 7.3-10.4 0-17.7-7.3-7.3-7.35-7.3-17.7 0-10.4 7.3-17.7 7.3-7.3 17.7-7.3 10.35 0 17.7 7.3z"/><path id="j" stroke="#F7931E" stroke-linejoin="round" stroke-linecap="round" fill="none" d="M50.5 17.25q0 3.3-4.85 5.65-4.9 2.35-11.8 2.35t-11.8-2.35q-4.9-2.35-4.9-5.65 0-3.35 4.9-5.65 4.85-2.35 11.8-2.35 6.9 0 11.8 2.35 4.85 2.3 4.85 5.65z"/></defs><use xlink:href="#c" transform="translate(-4.5 -3)"/><use xlink:href="#d" transform="translate(-4.5 -3)"/><use xlink:href="#e" transform="translate(-4.5 -3)"/><use xlink:href="#f" transform="translate(-4.5 -3)"/><use xlink:href="#g" transform="translate(-4.5 -3)"/><use xlink:href="#h" transform="translate(-4.5 -3)"/><use xlink:href="#i" transform="translate(-4.5 -3)"/><use xlink:href="#j" transform="translate(-4.5 -3)"/></svg>

<svg xmlns="http://www.w3.org/2000/svg" version="1.1" xmlns:xlink="http://www.w3.org/1999/xlink" preserveAspectRatio="none" x="0px" y="0px" width="59px" height="59px" viewBox="0 0 59 59">
<defs>
<linearGradient id="Gradient_1" gradientUnits="userSpaceOnUse" x1="35.65" y1="8.400000000000002" x2="35.65" y2="57.5" spreadMethod="pad">
<stop  offset="0%" stop-color="#FBB03B" stop-opacity="0.4"/>

<stop  offset="62.745098039215684%" stop-color="#FBB03B" stop-opacity="0.30196078431372547"/>

<stop  offset="100%" stop-color="#FFFFFF" stop-opacity="0.6"/>
</linearGradient>

<linearGradient id="Gradient_2" gradientUnits="userSpaceOnUse" x1="32.1" y1="31.1" x2="32.1" y2="10.799999999999999" spreadMethod="pad">
<stop  offset="0%" stop-color="#FBB03B" stop-opacity="0.4"/>

<stop  offset="62.745098039215684%" stop-color="#FBB03B" stop-opacity="0.30196078431372547"/>

<stop  offset="100%" stop-color="#FFFFFF" stop-opacity="0.6"/>
</linearGradient>

<g id="Layer0_0_MEMBER_0_FILL">
<path fill="#E2E2E2" stroke="none" d="
M 63.4 32.5
Q 63.4 20.3 54.8 11.7 46.2 3.1 34 3.1 21.85 3.1 13.25 11.7 4.65 20.3 4.65 32.5 4.65 44.65 13.25 53.3 21.85 61.9 34 61.9 46.2 61.9 54.8 53.3 63.4 44.65 63.4 32.5 Z"/>
</g>

<g id="Layer0_0_MEMBER_1_FILL">
<path fill="#FFFFFF" stroke="none" d="
M 61.85 32.05
Q 61.85 20.45 53.65 12.25 45.45 4.05 33.85 4.05 22.25 4.05 14.05 12.25 5.85 20.45 5.85 32.05 5.85 43.65 14.05 51.85 22.25 60.05 33.85 60.05 45.45 60.05 53.65 51.85 61.85 43.65 61.85 32.05 Z"/>
</g>

<g id="Layer0_0_MEMBER_2_FILL">
<path fill="#FBB03B" stroke="none" d="
M 58.95 32.05
Q 58.95 21.65 51.65 14.35 44.3 7.05 33.95 7.05 23.55 7.05 16.25 14.35 8.95 21.65 8.95 32.05 8.95 42.4 16.25 49.75 23.55 57.05 33.95 57.05 44.3 57.05 51.65 49.75 58.95 42.4 58.95 32.05 Z"/>
</g>

<g id="Layer0_0_MEMBER_4_FILL">
<path fill="#FFFFFF" stroke="none" d="
M 29.7 41.45
Q 28 43.15 28 45.6 28 48.05 29.7 49.75 31.45 51.5 33.85 51.5 36.25 51.5 38 49.75 39.75 48 39.75 45.6 39.75 43.2 38 41.45 36.25 39.7 33.85 39.7 31.45 39.7 29.7 41.45
M 39.6 18.8
Q 39.6 15.8 38.2 14.25 36.85 12.65 33.85 12.65 30.85 12.65 29.5 14.25 28.15 15.85 28.15 18.8 28.15 21.55 28.75 25.75 29.6 30.8 30.5 35.05 30.8 36.5 31.55 37.15 32.3 37.75 33.85 37.75 35.5 37.75 36.15 37.15 36.9 36.5 37.2 35.05 38.4 29.9 39 25.75 39.6 21.55 39.6 18.8 Z"/>
</g>

<g id="Layer0_0_MEMBER_5_MEMBER_0_FILL">
<path fill="url(#Gradient_1)" stroke="none" d="
M 56.85 32.05
Q 56.85 22.5 50.1 15.75 43.4 9.05 33.85 9.05 24.3 9.05 17.55 15.75 10.85 22.5 10.85 32.05 10.85 41.6 17.55 48.3 24.3 55.05 33.85 55.05 43.4 55.05 50.1 48.3 56.85 41.6 56.85 32.05 Z"/>
</g>

<g id="Layer0_0_MEMBER_5_MEMBER_1_MEMBER_0_FILL">
<path fill="url(#Gradient_2)" stroke="none" d="
M 50.5 17.05
Q 50.5 13.7 45.65 11.4 40.75 9.05 33.85 9.05 26.9 9.05 22.05 11.4 17.15 13.7 17.15 17.05 17.15 20.35 22.05 22.7 26.95 25.05 33.85 25.05 40.75 25.05 45.65 22.7 50.5 20.35 50.5 17.05 Z"/>
</g>

<path id="Layer0_0_MEMBER_3_1_STROKES" stroke="#F7931E" stroke-width="1" stroke-linejoin="round" stroke-linecap="round" fill="none" d="
M 51.55 14.35
Q 58.85 21.65 58.85 32.05 58.85 42.4 51.55 49.75 44.2 57.05 33.85 57.05 23.45 57.05 16.15 49.75 8.85 42.4 8.85 32.05 8.85 21.65 16.15 14.35 23.45 7.05 33.85 7.05 44.2 7.05 51.55 14.35 Z"/>

<path id="Layer0_0_MEMBER_5_MEMBER_1_MEMBER_1_1_STROKES" stroke="#F7931E" stroke-width="1" stroke-linejoin="round" stroke-linecap="round" fill="none" d="
M 50.5 17.25
Q 50.5 20.55 45.65 22.9 40.75 25.25 33.85 25.25 26.95 25.25 22.05 22.9 17.15 20.55 17.15 17.25 17.15 13.9 22.05 11.6 26.9 9.25 33.85 9.25 40.75 9.25 45.65 11.6 50.5 13.9 50.5 17.25 Z"/>
</defs>

<g transform="matrix( 1, 0, 0, 1, -4.5,-3) ">
<use xlink:href="#Layer0_0_MEMBER_0_FILL"/>
</g>

<g transform="matrix( 1, 0, 0, 1, -4.5,-3) ">
<use xlink:href="#Layer0_0_MEMBER_1_FILL"/>
</g>

<g transform="matrix( 1, 0, 0, 1, -4.5,-3) ">
<use xlink:href="#Layer0_0_MEMBER_2_FILL"/>
</g>

<g transform="matrix( 1, 0, 0, 1, -4.5,-3) ">
<use xlink:href="#Layer0_0_MEMBER_3_1_STROKES"/>
</g>

<g transform="matrix( 1, 0, 0, 1, -4.5,-3) ">
<use xlink:href="#Layer0_0_MEMBER_4_FILL"/>
</g>

<g transform="matrix( 1, 0, 0, 1, -4.5,-3) ">
<use xlink:href="#Layer0_0_MEMBER_5_MEMBER_0_FILL"/>
</g>

<g transform="matrix( 1, 0, 0, 1, -4.5,-3) ">
<use xlink:href="#Layer0_0_MEMBER_5_MEMBER_1_MEMBER_0_FILL"/>
</g>

<g transform="matrix( 1, 0, 0, 1, -4.5,-3) ">
<use xlink:href="#Layer0_0_MEMBER_5_MEMBER_1_MEMBER_1_1_STROKES"/>
</g>
</svg>
